X: 7
T: "The Godfather" Theme   [Am]
T: Speak Softly, Love
C: music: Nino Rota (1911-1979)
%C: words: Larry Kusik
Z: 1999 John Chambers <jc:trillian.mit.edu>
M: C
L: 1/8
K: Am
EAc "A"||\
"Am"BAcA "Dm"BAFG | "Am"E4 zEAc |\
BAcA BAE_E | "Dm"D4 zDF^G ||\
"Dm6"B4 zDF^G | "Am"A4 zA,CG |
"Dm"FEGF "E7"FEE^G, | "Am"A,4 z[AC][AC][_AC] "B"||\
"G7"[G4B,4] [B2D2] [AC][FA,] | "C"[E4G,4] z[EC][GE][EC] |\
"Bb"[D4_B,4] "Bdim"zDF^D | "Em"E4 "E7"zEAc "C"||\
"Am"BAcA "Dm"BAFG |
"Am"E4 zEAc |\
BAcA BAE_E | "Dm"D4 zDF^G ||\
"Dm6"B4 zDF^G | "Am"A4 zA,CG |\
"Dm"FEGF "E7"FEE^G | "Am"A4 z |]

%%newpage


